projects/seb-pictograms/svg/regular/40-Picto-Regular_black.svg

<svg xmlns="http://www.w3.org/2000/svg" viewBox="0 0 170 170"><path d="M121 78.5l-33 33V5h-6v106.5l-33-33-4.2 4.3L85 123l40.2-40.2-4.2-4.3z"/><path d="M164.6 110.3l-26-46.4h-36.9v6H135l21.8 38.9h-38.1a3 3 0 00-3 3v21.7H54.2v-21.8a3 3 0 00-3-3H13.1l21.6-38.8H68v-6H32.9a3 3 0 00-2.6 1.5L5.4 110.3a3 3 0 00-.4 1.5V162a3 3 0 003 3h154a3 3 0 003-3v-50.3a3 3 0 00-.4-1.4zM159 159H11v-44.3h37.2v21.7a3 3 0 003 3h67.5a3 3 0 003-3v-21.7H159z"/></svg>

<svg id="PIKTO_REGULAR" xmlns="http://www.w3.org/2000/svg" viewBox="0 0 170 170"><title>regular_black</title><polygon points="121 78.5 88 111.5 88 5 82 5 82 111.5 49 78.5 44.8 82.8 85 123 125.2 82.8 121 78.5"/><path d="M164.6,110.3h0L138.6,63.9H101.7v6H135l21.8,38.9H118.7a3,3,0,0,0-3,3v21.7H54.2V111.7a3,3,0,0,0-3-3H13.1L34.7,69.9H68v-6H32.9a3,3,0,0,0-2.6,1.5L5.4,110.3h0a3,3,0,0,0-.4,1.5V162a3,3,0,0,0,3,3H162a3,3,0,0,0,3-3V111.7A3,3,0,0,0,164.6,110.3ZM159,159H11V114.7H48.2v21.7a3,3,0,0,0,3,3h67.5a3,3,0,0,0,3-3V114.7H159Z"/></svg>
